src/icons/umbrella.svg

<?xml version="1.0" encoding="UTF-8" standalone="no"?><svg viewBox="0 0 32 32" xmlns="http://www.w3.org/2000/svg" xmlns:xlink="http://www.w3.org/1999/xlink" xml:space="preserve" fill-rule="evenodd" clip-rule="evenodd" stroke-linejoin="round" stroke-miterlimit="2" fill="currentColor"><g transform="translate(-1.052 -.576)"><path d="M23.744 14.08c.768 1.792.768 3.616-.032 5.152a.88.88 0 0 1-.8.48 1 1 0 0 1-.416-.096l-5.28-2.72-2.08 4-.032.032c-.096.256-.128.512-.032.736.096.256.288.48.512.608a1.1 1.1 0 0 0 1.44-.448c.224-.448.768-.608 1.216-.384s.608.768.384 1.216c-.512 1.024-1.504 1.568-2.56 1.568-.448 0-.896-.096-1.312-.32a2.865 2.865 0 0 1-1.216-3.872c.032-.032.064-.096.096-.128l1.984-3.808-5.344-2.752c-.448-.224-.608-.768-.384-1.216.8-1.568 2.304-2.656 4.224-3.04 1.824-.384 3.84-.064 5.664.864s3.232 2.4 3.968 4.128m-1.312 3.488c.192-.864.096-1.824-.32-2.816a6.4 6.4 0 0 0-.704-1.184c-.032.96-.256 2.016-.704 3.104zm-7.968-6.72c-1.024.224-1.888.672-2.464 1.376l1.76.896c.608-.992 1.312-1.792 2.08-2.368-.48-.032-.928 0-1.376.096m2.784 4.064 1.824.96c.832-2.08.704-3.936-.128-4.32-.8-.416-2.4.544-3.584 2.4z"/></g></svg>

<?xml version="1.0" encoding="UTF-8" standalone="no"?>
<!DOCTYPE svg PUBLIC "-//W3C//DTD SVG 1.1//EN" "http://www.w3.org/Graphics/SVG/1.1/DTD/svg11.dtd">
<svg width="100%" height="100%" viewBox="0 0 32 32" version="1.1" xmlns="http://www.w3.org/2000/svg" xmlns:xlink="http://www.w3.org/1999/xlink" xml:space="preserve" xmlns:serif="http://www.serif.com/" style="fill-rule:evenodd;clip-rule:evenodd;stroke-linejoin:round;stroke-miterlimit:2;">
    <g transform="matrix(1,0,0,1,-1.05177,-0.576453)">
        <path d="M15.616,16.096L10.272,13.344C9.824,13.12 9.664,12.576 9.888,12.128C10.688,10.56 12.192,9.472 14.112,9.088C15.936,8.704 17.952,9.024 19.776,9.952C21.6,10.88 23.008,12.352 23.744,14.08C24.512,15.872 24.512,17.696 23.712,19.232C23.552,19.552 23.232,19.712 22.912,19.712C22.784,19.712 22.624,19.68 22.496,19.616L17.216,16.896L15.616,16.096ZM22.432,17.568C22.624,16.704 22.528,15.744 22.112,14.752C21.92,14.336 21.696,13.952 21.408,13.568C21.376,14.528 21.152,15.584 20.704,16.672L22.432,17.568ZM14.464,10.848C13.44,11.072 12.576,11.52 12,12.224L13.76,13.12C14.368,12.128 15.072,11.328 15.84,10.752C15.36,10.72 14.912,10.752 14.464,10.848ZM17.248,14.912L19.072,15.872C19.904,13.792 19.776,11.936 18.944,11.552C18.144,11.136 16.544,12.096 15.36,13.952L17.248,14.912Z"/>
    </g>
    <g transform="matrix(1,0,0,1,-1.05177,-0.576453)">
        <path d="M15.616,16.096L17.216,16.896L15.136,20.896L15.104,20.928C15.008,21.184 14.976,21.44 15.072,21.664C15.168,21.92 15.36,22.144 15.584,22.272C16.096,22.528 16.736,22.336 17.024,21.824C17.248,21.376 17.792,21.216 18.24,21.44C18.688,21.664 18.848,22.208 18.624,22.656C18.112,23.68 17.12,24.224 16.064,24.224C15.616,24.224 15.168,24.128 14.752,23.904C13.344,23.168 12.8,21.44 13.536,20.032C13.568,20 13.6,19.936 13.632,19.904L15.616,16.096Z"/>
    </g>
</svg>
